X:1
T:Mein Herz, ich will dich fragen
T:Mein Herz, ich will dich fragen
T:Carl Loewe
T:Fr. Halm
C:Carl Loewe
%%score 1 { ( 2 5 ) | ( 3 4 ) }
L:1/8
M:12/8
K:Bb
V:1 treble nm="Vocal"
V:2 treble nm="Piano"
V:5 treble 
V:3 bass 
V:4 bass 
V:1
"^Larghetto" z3 z6 | z6 z3 z2!p!!<(! F!<)! |!>(! F6!>)! z2!<(! F B2 A!<)! |!>(! A3 G3!>)! z3 G3 | %4
w: |Mein|Herz, ich will dich|fra- gen, was|
 G3 A3!<(! (B3 d2)!<)!!>(! c | c6!>)! z3!f! F3 | !>!d3- dAB !>!e3- e=Bc | %7
w: ist denn Lie- * be?|sag'! "Zwei|See- * len und Ein * \- Ge-|
!>(! (f6- .f.e.d .c.B)!>)!G | (F2 B) (B2 d) (d2 c) (!>!g2 f) | (f6- .f.e.d .c.B)G | %10
w: dan \- \- \- ke, * zwei|Her- * zen * und * Ein *|Schlag, \- \- \- \- * zwei|
 (F2 B) (B2 d) (d2 c) (!>!g2 f) | B6 z6 | z12 | z12 | z12 | z6 z3 z2!p!"^a tempo"!<(! F!<)! | %16
w: Her- * zen * und * Ein *|Schlag!"||||Und|
!>(! F6!>)! z2!<(! F B2 A!<)! |!>(! A3 G3!>)! z3"^cresc." G3 | c6 z2 G A2 B | A6 z3!f!!<(! A3 | %20
w: sprich: wo- her kommt|Lie- be? "Sie|kommt, und sie ist|da." Und|
 d6!<)! z2!<(! A d2 c!<)! |!>(! c3 B3!>)! z3"^dim." A3 | A3 G3 z3 G2 ^F | A6 z3 z2!p! A | %24
w: spricht: wie schwin- det|Lie- be? "Die|war's nicht, der's ge-|schah, die|
 !>!c3 B3 z3 B^FG | A6 z3 z2!p! A | !>!c3 B3 z3 ^C2 C | D3 z3 z6 | z6 z3 z2!p! F | %29
w: war's nicht, der's \- ge-|schah, die|war's nicht, der's ge-|schah,|Und|
 F3- FGA B3- BA!<(!B!<)! |!>(! A3 G3!>)! z3"^cresc." G3 | G3- GAB c3- cBc | A3 z3 z3"^cresc." A3 | %33
w: wann * \- ist Lieb' * \- am|rein- stein? "Die|ih * \- rer selbst * \- ver-|gißt." Und|
 A3- ABc d3- dc!<(!d!<)! |!>(! c3 B3!>)! z3 G3 | G3 G3 G3- GFG | _A6 z3 z2 A | G3 G3 G3- GFG | %38
w: wann * \- ist Lieb' * \- am|tief- sten? "Wenn|sie am still * \- sten|ist, wenn|sie am still * \- sten|
 _A6 z3!f! A3 ||[K:E] G3- G2 G G3- G2 E | !>!c3 B3 z6 | !>!f3 d2 B A3- A2 B | G6 z3 G3 | %43
w: ist." Und|wann * ist Lieb' * am|reich- sten?|"Das ist sie, wenn * sie|gibt." Und|
 G3 z2"^dim." G B3- B2 G ||[K:Bb] =G3 B3 z3!f! e3 | _c2 B _A3 z3 z2!p! G | B6 z3"^cresc." B3 | %47
w: sprich: wie re- * det|Lie- be? "Sie|re- det nicht, sie|liebt, sie|
 !>!f2 e e3 z3 z2!p! A | B3 z3 z6 | z6 z3 z2!p!!<(! F!<)! |!>(! F6!>)! z2!<(! F B2 A!<)! | %51
w: re- det nicht, sie|liebt."|Mein|Herz, ich will dich|
!>(! A3 G3!>)! z3 G3 | G3 A3!<(! (B3 d2)!<)!!>(! c | c6!>)! z3!f! F3 | !>!d3- dAB !>!e3- e=Bc | %55
w: fra- gen, was|ist nun Lie- * be?|sag'! "Zwei|See- * len und Ein * \- Ge-|
!>(! (f6- .f.e.d .c.B)!>)!G | (F2 B) (B2 d) (d2 c) (!>!g2 f) | (f6- .f.e.d .c.B)G | %58
w: dan \- \- \- ke, * zwei|Her- * zen * und * Ein *|Schlag, \- \- \- \- * zwei|
 (F2 B) (B2 d) (d2 c) (!>!g2 f) | B6 z6 | z12 | z12 | z12 | z3 |] %64
w: Her- * zen * und * Ein *|Schlag."|||||
V:2
 z3 z6 | z6 z3 z2[K:bass] F | %2
 .[B,DF].[B,DF].[B,DF] .[B,DF].[B,DF].[B,DF] .[B,F].[B,F].[B,F] .[B,F].[B,F].[B,F] | %3
 .[B,G].[B,G].[B,G] .[B,G].[B,G].[B,G] .[=B,G].[B,G].[B,G] .[B,G].[B,G].[B,G] | %4
 .[CG].[CG].[CG] .[CG].[CG].[CG] .[B,CG].[B,CG].[B,CG] .[B,CG].[B,CG].[B,CG] | %5
 !arpeggio![A,CF][K:treble]"^cresc." .[Ff].[Ff] .[Ff].[Ff].[Ff] .[Ff][Fg].[Ff] [Fe][Fd][Fc] | %6
 [Fd]3- [Fd][FA][FB] [Fe]3- [Fe][F=B][Fc] | !>!f6- .f"^dim.".e.d .c.B.G | %8
 .F.F.[FB]"^cresc." .[FB].[FB].[Fd] .[Fd].[Fd].[Fc]"^sf" .[Acg].[Acg].[Acf] | %9
!f! [Bf][FBf][FBf] [FBf][FBf][FBf]"^dim." .f.e.d .c.B.G | %10
 .F.F.[FB] .[FB].[FB].[Fd] z"^cresc." [CEFA][CEFA] [CEFA][CEFA][CEFA] | %11
!ff! !arpeggio![B,DFB] z z z!8va(! .[aa'].[bb'] !>![c'c'']3- [c'c''].[=a=a'].[bb'] | %12
 !>![c'c'']3- [c'c''].[=a=a'].[bb'] !>![c'c'']3- [c'c''].[=a=a'].[bb'] | %13
 .[c'c''].[bb']!8va)!"^dim.".[gg'] .[ff'].[dd'].[cc'] .[Bb]!p!.[Gg].[Ff] .[Dd].[B,B].[G,G] | %14
 [F,F]3"^poco sf" [Bd]6"^poco sf" ([Bc-]3 | [Ac]3)"^poco sf" ([_AB-]3 [GB])"^rit."[E=A][EG] [EF]3 | %16
 z [DF][DF] [DF][DF][DF] z [B,F][B,F] [B,^F][B,F][B,F] | %17
 z [B,G][B,G] [B,G][B,G][B,G] z [=B,G][B,G] [B,G][B,G][B,G] | %18
 z [CG][CG] [CG][CG][CG] z [CGB][CGB] [CGB][CGB][CGB] | %19
 z [CFA][CFA] [CFA][CFA][CFA] z [EA][EA] [EA][EA][EA] | %20
!f! z [DA][DA] [DA][DA][DA] z [DAc][DAc] [DAc][DAc][DAc] | %21
 z [DGB][DGB] [DGB][DGB][DGB] z [DA][DA] [DA][DA][DA] | %22
 z [DG][DG] [DG][DG][DG] z [^CG][CG] [CG][CG][CG] | z3 z .^c.d !>!e3- edA | c3 B6 B^FG | %25
 A3- A[^c^c'][dd'] !>![ee']3- [ee'][dd'][Aa] | ([cc']3 [Bb])^FG B3 (^C3 | %27
 D)[^FA][FA] [FA][FA][FA] [FA][FA][FA] [FA][FA][FA] | %28
 [^FA][FA][FA] [FA][FA][FA] [=FA][FA][FA] [FA][EF][EF] | z6 z3 z2 B | B3- Bcd e3- ede | %31
 d3 c3 z3 c3 | c3- cde f3- fef | d3 z3 z3 d3 |!>(! !>!d3- d.c!>)!.B!>(! !>!B3- B.A!>)!.G | %35
"^dim." z [DG][DG] [DG][DG][DG] z [_DG][DG] [DG][DG][DG] |!pp! _A6- A2 .e .c2 .A | %37
[K:bass] z [_DEG][DEG] [DEG][DEG][DEG] z [B,DEG][B,DEG] [B,DEG][B,DEG][B,DEG] | %38
 [_A,CE_A]"^cresc.".[A,A].[A,A] .[A,A].[A,A].[A,A] .[A,A].[A,A].[A,A] .[A,A].[A,A].[A,A] || %39
[K:E]!f! [G,B,EG][G,B,EG][G,B,EG] [G,B,EG][G,B,EG][G,B,EG] [G,B,EG][G,B,EG][G,B,EG] [G,B,EG][G,B,EG][G,B,EG] | %40
 [A,B,DF][A,B,DF][A,B,DF] [A,B,DF][A,B,DF][A,B,DF] [A,B,DF][A,B,DF][A,B,DF] [A,B,DF][A,B,DF][A,B,DF] | %41
 [A,B,F][A,B,F][A,B,F] [A,B,F][A,B,F][A,B,F] [A,B,F][A,B,F][A,B,F] [A,B,F][A,B,F][A,B,F] | %42
 [G,B,EG][G,B,EG][G,B,EG] [G,B,EG][G,B,EG][G,B,EG]"^dim." [G,B,EG][G,B,EG][G,B,EG] [G,B,EG][G,B,EG][G,B,EG] | %43
 [G,B,DG][G,B,DG][G,B,DG] [G,B,DG][G,B,DG][G,B,DG] [G,^^CG][G,CG][G,CG] [G,CG][G,CG][G,CG] || %44
[K:Bb] [_B,_E=G]"^cresc."[B,EG][B,EG] [B,EG][B,EG][B,EG] [_DEB][DEB][DEB] [DEB][DEB][DEB] | %45
 [_CE_A]"^dim."[CEA][CEA] [CEA][CEA][CEA] [_A,=DA][A,DA][A,DA] [A,DA][A,DA][A,DA] | %46
!p! [B,EG][B,EG][B,EG] [B,EG][B,EG][B,EG][K:treble]"^cresc." [DFB][DFB][DFB] [DFB][DFB][DFB] | %47
!f! [EGBc][EGBc][EGBc] [EGBc][EGBc][EGBc]"^dim." [EFAc][EFAc][EFAc] [EFAc][EFAc][EFAc] | %48
 [DFB][Bd][Bd] [Bd][Bd][Bd] [Bd][Bd][Bd] [Bcg][Bcg][Bcg] | %49
 [Acf][Acf][Acf] [_ABf][ABf][ABf]"^rit." [GBf][EBe][EGd] [E_Gc][EFB]"^a tempo"[EF=A] | %50
 [DFB][K:bass] .[B,DF].[B,DF] .[B,DF].[B,DF].[B,DF] .[B,F].[B,F].[B,F] .[B,F].[B,F].[B,F] | %51
 .[B,G].[B,G].[B,G] .[B,G].[B,G].[B,G] .[=B,G].[B,G].[B,G] .[B,G].[B,G].[B,G] | %52
 .[CG].[CG].[CG] .[CG].[CG].[CG] .[B,CG].[B,CG].[B,CG] .[B,CG].[B,CG].[B,CG] | %53
 !arpeggio![A,CF][K:treble]"^cresc." .[Ff].[Ff] .[Ff].[Ff].[Ff] .[Ff][Fg].[Ff] [Fe][Fd][Fc] | %54
 !>![Fd]3- [Fd][FA][FB] !>![Fe]3- [Fe][F=B][Fc] | !>!f6- .f"^dim.".e.d .c.B.G | %56
 .F"^cresc.".F.[FB] .[FB].[FB].[Fd] .[Fd].[Fd].[Fc] .[Acg].[Acg].[Acf] | %57
 [Bf][FBf][FBf] [FBf][FBf][FBf] .f.e.d .c.B.G | %58
 .F.F.[FB] .[FB].[FB].[Fd] z"^cresc." [CEFA][CEFA] [CEFA][CEFA][CEFA] | %59
!ff! !arpeggio![B,DFB] z z z!8va(! .[aa'].[bb'] !>![c'c'']3- [c'c''].[=a=a'].[bb'] | %60
 !>![c'c'']3- [c'c''].[=a=a'].[bb'] !>![c'c'']3- [c'c''].[=a=a'].[bb'] | %61
 .[c'c''].[bb']!8va)!.[gg']"^dim." .[ff'].[dd'].[cc'] .[Bb].[Gg].[Ff]!p! .[Dd].[B,B].[G,G] | %62
"^sf" [F,F]12- | [F,F]3 |] %64
V:3
 z!p! .F.^F G3 z .E.=E | !>!F3 z ^CD"^rit." EG,B, A,=C"^a tempo"F, | B,,6 D,6 | E,6 E,6 | %4
 E,6 =E,6 |!f! F,6 [F,,F,]6 | %6
 z [F,B,D][F,B,D] [F,B,D][F,B,D][F,B,D] z [F,A,E][F,A,E] [F,A,E][F,A,E][F,A,E] | %7
 z [B,D][B,D] [B,D][B,D][B,D] B,3- B,C[B,^C] | [F,B,D]6 [F,A,E]3 ([EF-]3 | %9
 [DF])[D,F,B,D][D,F,B,D] [D,F,B,D][D,F,B,D][D,F,B,D] B,3- B,C[B,^C] | [F,B,D]6 [F,,F,]6 | %11
 [B,,,B,,][F,B,D][F,B,D] [F,B,D][F,B,D][F,B,D] [B,,,B,,][_A,B,DF][A,B,DF] [A,B,DF][A,B,DF][A,B,DF] | %12
 [B,,,B,,][G,B,E][G,B,E] [G,B,E][G,B,E][G,B,E] [B,,,B,,][_G,B,CE][G,B,CE] [G,B,CE][G,B,CE][G,B,CE] | %13
 z [F,B,D][F,B,D] [F,B,D][F,B,D][F,B,D] [F,B,D]3 z3 | z3 z!p! .F.^F G3 z .E.=E | %15
 !>!F3 z ^CD EG,B, A,=CF, | B,6 D,6 | E,6 E,6 | =E,6 E,6 | F,6 F,6 | ^F,6 F,6 | G,6 =F,6 | %22
 E,6 E,6 | %23
 z"^cresc." [^F,A,D][F,A,D] [F,A,D][F,A,D][F,A,D] z [F,A,D][F,A,D]"^dim." [F,A,D][F,A,D][F,A,D] | %24
 z [G,B,D][G,B,D] [G,B,D][G,B,D][G,B,D] z [G,B,^C][G,B,C] [G,B,C][G,B,C][G,B,C] | %25
 z"^cresc." [^F,A,D][F,A,D] [F,A,D][F,A,D][F,A,D] z [F,A,D][F,A,D] [F,A,D]"^dim."[F,A,D][F,A,D] | %26
 z [G,B,D][G,B,D] [G,B,D]!p![G,B,D][G,B,D] [G,B,^C]3 z3 | %27
 D,3- D,=C=D !>!_E3"^cresc." z[K:treble] cd | _e3 z[K:bass] .C.D !>!E3-"^dim." EF,A, | %29
 z [DF][DF] [DF][DF][DF] z [F,B,][F,B,] [F,B,][F,B,][F,B,] | %30
 z [G,B,][G,B,] [G,B,][G,B,][G,B,] z [G,B,][G,B,] [G,B,][G,B,][G,B,] | %31
 z [G,B,C][G,B,C] [G,B,C][G,B,C][G,B,C] z [=E,G,C][E,G,C] [E,G,C][E,G,C][E,G,C] | %32
"^cresc." z [A,C][A,C] [A,C][A,C][A,C] z [A,C][A,C] [A,C][A,C][A,C] | %33
 z [A,CD][A,CD] [A,CD][A,CD][A,CD] [A,CD][A,CD][A,CD] [A,CD][A,CD][A,CD] | %34
 z [B,D][B,D] [B,D][B,D][B,D] z [B,D][B,D] [B,D][B,D][B,D] | x12 | %36
 z [_A,CE][A,CE] [A,CE][A,CE][A,CE] z [A,CE][A,CE] [A,CE][A,CE][A,CE] | E,6 E,6 | _A,,6- A,,3 z3 || %39
[K:E] [E,,B,,E,]6 [E,,B,,E,]6 | [F,,B,,F,]6 [F,,B,,F,]6 | [D,,B,,D,]6 [D,,B,,D,]6 | [E,,B,,E,]12 | %43
 [E,,B,,E,]6 [E,,E,]6 ||[K:Bb] [_E,,_E,]6 [G,,G,]6 | [_A,,_A,]6 [_F,,_F,]6 | %46
 [E,,E,]6 [D,F,B,][D,F,B,][D,F,B,] [D,F,B,][D,F,B,][D,F,B,] | %47
 [C,G,C][C,G,C][C,G,C] [C,G,C][C,G,C][C,G,C] [F,,F,][F,,F,][F,,F,] [F,,F,][F,,F,][F,,F,] | %48
 [B,,B,]3- [B,,B,]!p!.F.^F G3 z .E.=E | !>!F3 z ^CD EG,B, A,=CF, | B,,6 D,6 | E,6 E,6 | E,6 =E,6 | %53
 F,6 [F,,F,]6 | z [F,B,D][F,B,D] [F,B,D][F,B,D][F,B,D] z [F,A,E][F,A,E] [F,A,E][F,A,E][F,A,E] | %55
 z [B,D][B,D] [B,D][B,D][B,D] B,3- B,C[B,^C] | [F,B,D]6 [F,A,E]3"^sf" ([EF-]3 | %57
!f! [DF])[D,F,B,D][D,F,B,D] [D,F,B,D][D,F,B,D][D,F,B,D] B,3- B,C[B,^C] | [F,B,D]6 [F,,F,]6 | %59
 [B,,,B,,][F,B,D][F,B,D] [F,B,D][F,B,D][F,B,D] [B,,,B,,][_A,B,DF][A,B,DF] [A,B,DF][A,B,DF][A,B,DF] | %60
 [B,,,B,,][G,B,E][G,B,E] [G,B,E][G,B,E][G,B,E] [B,,,B,,][_G,B,CE][G,B,CE] [G,B,CE][G,B,CE][G,B,CE] | %61
 z [F,B,D][F,B,D] [F,B,D][F,B,D][F,B,D] [F,B,D]3 z3 | z6 [B,,,B,,]3 z2 z | [B,,,B,,]3 |] %64
V:4
 x9 | x12 | x12 | x12 | x12 | x12 | [B,,,B,,]6 [C,,C,]6 | [D,,D,]6 E,3- E,2 =E, | x12 | %9
 x6 E,3- E,2 =E, | x12 | x12 | x12 | [B,,,B,,]12 | x12 | x12 | x12 | x12 | x12 | x12 | x12 | x12 | %22
 x12 | D,6 D,6 | D,6 D,6 | D,6 D,6 | D,6 D,3 z z2 | x10[K:treble] x2 | x4[K:bass] x8 | B,6 D,6 | %30
 E,6 E,6 | =E,6 C,6 | F,6 F,6 | ^F,6 z2 z4 | G,6 F,6 | E,6 E,6 | E,6 E,6 | x12 | x12 ||[K:E] x12 | %40
 x12 | x12 | x12 | x12 ||[K:Bb] x12 | x12 | x12 | x12 | x12 | x12 | x12 | x12 | x12 | x12 | %54
 [B,,,B,,]6 [C,,C,]6 | [D,,D,]6 E,3- E,2 =E, | x12 | x6 E,3- E,2 =E, | x12 | x12 | x12 | %61
 [B,,,B,,]12 | x12 | x3 |] %64
V:5
 x9 | x11[K:bass] x | x12 | x12 | x12 | x[K:treble] x11 | x12 | x [FB][FB] [FB][FB][FB] G6 | x12 | %9
 x6 [GB]6 | x12 | x4!8va(! x8 | x12 | x2!8va)! x10 | x12 | x12 | x12 | x12 | x12 | x12 | x12 | %21
 x12 | x12 | x12 | x12 | x12 | x12 | x12 | x12 | x12 | x12 | x12 | x12 | x12 | x12 | x12 | x12 | %37
[K:bass] x12 | x12 ||[K:E] x12 | x12 | x12 | x12 | x12 ||[K:Bb] x12 | x12 | x6[K:treble] x6 | x12 | %48
 x12 | x12 | x[K:bass] x11 | x12 | x12 | x[K:treble] x11 | x12 | x [FB][FB] [FB][FB][FB] G6 | x12 | %57
 x6 [GB]6 | x12 | x4!8va(! x8 | x12 | x2!8va)! x10 | x6 [B,D]3 z2 z | [B,D]3 |] %64

